X: 3363
T: Sir Arch.d Dunbar.   a Strathspey.
T: Sir Archibald Dunbar
%R: strathspey, air
B: Niel Gow & Sons "Complete Repository" v.3 p.36 #3
Z: 2021 John Chambers <jc:trillian.mit.edu>
M: C
L: 1/8
K: D
% - - - - - - - - - -
V: 1 staves=2
F |\
D/D/D TF>D G>E =C>E | D/D/D F>D A>DF>D | A>DF>D G>E =CE | Dd TA>F D/D/D D :| f | d<d f<d Tg>e =ce | d<d f>d a>d fd |
ad fd Tg>e =ce | D<d TA>F D/D/D D>f || d<d f>d Tg>e =ce | d<d f>d a>d f>d | a>d f>d Tg>e =ce | d<d'Ta>f d/d/d d |]
% - - - - - - - - - -
V: 2 clef=bass middle=d
z | d2d2 =c2c2 | d2d2 d2d2 | d2d2 =c2c2 | d2A2 D2D :| z | d'2d'2 =c'2c'2 | d'2d'2 d'2d'2 |
d'2d'2 =c'2=c2 | d2A2 D2D2 || d'2d'2 =c'2c'2 | d'2d'2 d'2d'2 | d'2d'2 =c'2c'2 | d'2a2 d2d |]


